packages/dnb-ui-lib/assets/icons/account_in_medium.svg

<svg width="24" height="24" viewBox="0 0 24 24" fill="none" xmlns="http://www.w3.org/2000/svg">
<path d="M14.6222 9.74998L15.0708 9.14893C14.9412 9.05223 14.7838 8.99998 14.6222 8.99998V9.74998ZM8.6278 9.74998V8.99998C8.46612 8.99998 8.30877 9.05223 8.1792 9.14893L8.6278 9.74998ZM11.625 23.25V24V23.25ZM8.24998 6.74999C7.83577 6.74999 7.49999 7.08577 7.49999 7.49999C7.49999 7.9142 7.83577 8.24998 8.24998 8.24998V6.74999ZM15 8.24998C15.4142 8.24998 15.75 7.9142 15.75 7.49999C15.75 7.08577 15.4142 6.74999 15 6.74999V8.24998ZM16.5 0.749999L16.9964 1.31216C17.2472 1.09066 17.321 0.729787 17.1772 0.427644C17.0333 0.125501 16.7067 -0.0448081 16.3767 0.0102045L16.5 0.749999ZM7.49999 2.25L7.37669 1.5102C7.06111 1.5628 6.81364 1.80978 6.76043 2.12525C6.70722 2.44072 6.85999 2.75522 7.14085 2.90842L7.49999 2.25ZM8.99998 5.24999H8.24998C8.24998 5.6642 8.58577 5.99999 8.99998 5.99999V5.24999ZM13.875 5.24999V5.99999C14.2892 5.99999 14.625 5.6642 14.625 5.24999H13.875ZM6.39212 21.4607C6.03903 21.2441 5.57724 21.3548 5.36067 21.7079C5.1441 22.061 5.25477 22.5228 5.60786 22.7393L6.39212 21.4607ZM7.00023 10.1132C6.69138 10.3892 6.66474 10.8633 6.94075 11.1722C7.21675 11.481 7.69088 11.5077 7.99974 11.2317L7.00023 10.1132ZM0.999998 15.75C0.585785 15.75 0.25 16.0858 0.25 16.5C0.25 16.9142 0.585785 17.25 0.999998 17.25V15.75ZM5.46966 18.4696C5.17677 18.7625 5.17677 19.2374 5.46966 19.5303C5.76255 19.8232 6.23742 19.8232 6.53032 19.5303L5.46966 18.4696ZM8.49998 16.5L9.03031 17.0303C9.32321 16.7374 9.32321 16.2625 9.03031 15.9696L8.49998 16.5ZM6.53032 13.4696C6.23742 13.1768 5.76255 13.1768 5.46966 13.4696C5.17677 13.7625 5.17677 14.2374 5.46966 14.5303L6.53032 13.4696ZM14.6222 8.99998H8.6278V10.5H14.6222V8.99998ZM11.625 24C14.6467 24 16.8322 23.4755 18.2627 22.2981C19.7313 21.0893 20.25 19.3267 20.25 17.25H18.75C18.75 19.0907 18.2959 20.328 17.3095 21.1399C16.285 21.9831 14.5329 22.5 11.625 22.5V24ZM20.25 17.25C20.25 15.6192 19.5327 14.0352 18.5616 12.6677C17.5849 11.2922 16.3061 10.0709 15.0708 9.14893L14.1736 10.351C15.309 11.1985 16.4691 12.3117 17.3386 13.5362C18.2138 14.7686 18.75 16.0498 18.75 17.25H20.25ZM8.24998 8.24998H15V6.74999H8.24998V8.24998ZM16.3767 0.0102045L7.37669 1.5102L7.62328 2.98979L16.6233 1.48979L16.3767 0.0102045ZM7.49999 2.25C7.14085 2.90842 7.14049 2.90822 7.14014 2.90803C7.14003 2.90797 7.13969 2.90778 7.13947 2.90766C7.13903 2.90742 7.13862 2.9072 7.13823 2.90698C7.13744 2.90654 7.13674 2.90616 7.13612 2.90581C7.13489 2.90512 7.13399 2.90462 7.13342 2.9043C7.13228 2.90365 7.13245 2.90373 7.13384 2.90455C7.13662 2.9062 7.14422 2.91079 7.15599 2.91843C7.17957 2.93375 7.2194 2.96102 7.27021 3.00104C7.37224 3.08144 7.51535 3.21076 7.66025 3.39518C7.94381 3.75608 8.24998 4.34614 8.24998 5.24999H9.74998C9.74998 3.97202 9.30616 3.06209 8.83972 2.46845C8.60962 2.17559 8.37773 1.96401 8.19851 1.82281C8.1087 1.75204 8.03133 1.69835 7.97289 1.6604C7.94364 1.6414 7.91902 1.62628 7.89982 1.61488C7.89022 1.60918 7.88197 1.6044 7.87516 1.60052C7.87175 1.59859 7.8687 1.59687 7.86603 1.59538C7.86469 1.59464 7.86344 1.59395 7.86229 1.59331C7.86172 1.593 7.86117 1.59269 7.86064 1.5924C7.86037 1.59226 7.85999 1.59205 7.85986 1.59198C7.85949 1.59178 7.85912 1.59158 7.49999 2.25ZM8.99998 5.99999H13.875V4.49999H8.99998V5.99999ZM14.625 5.24999C14.625 4.42244 15.1435 3.4682 15.7817 2.63938C16.0872 2.2426 16.3945 1.90722 16.6258 1.67093C16.741 1.55322 16.8363 1.46121 16.9016 1.39966C16.9342 1.36891 16.9593 1.34584 16.9755 1.33104C16.9836 1.32364 16.9895 1.31832 16.9931 1.31515C16.9949 1.31356 16.996 1.31251 16.9966 1.31201C16.9969 1.31176 16.997 1.31165 16.997 1.31167C16.997 1.31169 16.9969 1.31173 16.9968 1.31181C16.9968 1.31185 16.9967 1.31194 16.9967 1.31196C16.9965 1.31206 16.9964 1.31216 16.5 0.749999C16.0035 0.187834 16.0034 0.187957 16.0032 0.188088C16.0032 0.188143 16.003 0.188284 16.0029 0.188395C16.0026 0.188617 16.0023 0.188876 16.002 0.18917C16.0013 0.189758 16.0005 0.190489 15.9995 0.191361C15.9976 0.193105 15.995 0.195415 15.9918 0.198281C15.9854 0.204014 15.9766 0.211975 15.9655 0.22209C15.9433 0.242314 15.9119 0.271178 15.8728 0.308077C15.7945 0.381823 15.6847 0.487971 15.5538 0.621684C15.2929 0.888232 14.9439 1.26876 14.5932 1.72424C13.9189 2.59997 13.125 3.89573 13.125 5.24999H14.625ZM5.60786 22.7393C7.01985 23.6054 9.00362 24 11.625 24V22.5C9.11417 22.5 7.45811 22.1145 6.39212 21.4607L5.60786 22.7393ZM8.1792 9.14893C7.78565 9.44266 7.38912 9.76568 7.00023 10.1132L7.99974 11.2317C8.35552 10.9137 8.71789 10.6186 9.07639 10.351L8.1792 9.14893ZM6.53032 19.5303L9.03031 17.0303L7.96965 15.9696L5.46966 18.4696L6.53032 19.5303ZM9.03031 15.9696L6.53032 13.4696L5.46966 14.5303L7.96965 17.0303L9.03031 15.9696ZM0.999998 17.25H8.49998V15.75H0.999998V17.25Z" fill="black"/>
<path d="M15.45 14.9099C14.874 14.9099 14.379 15.2159 14.127 15.6839V14.9999H12.957V19.4999H14.271V17.0429C14.271 16.3859 14.658 16.0439 15.423 16.0439C15.612 16.0439 15.783 16.0619 15.918 16.0889V14.9639C15.837 14.9369 15.657 14.9099 15.45 14.9099Z" fill="black"/>
<path d="M11.2213 16.1188L12.239 14.9999H10.799C11.0382 15.3998 11.1802 15.9125 11.2213 16.1188Z" fill="black"/>
<path d="M10.799 19.4999H12.374L10.973 17.6902C10.961 17.7444 10.7933 18.0175 10.2185 18.6764L10.799 19.4999Z" fill="black"/>
</svg>

<svg width="24" height="24" viewBox="0 0 24 24" fill="none" xmlns="http://www.w3.org/2000/svg"><path d="M14.622 9.75l.449-.601A.75.75 0 0014.622 9v.75zm-5.994 0V9a.75.75 0 00-.449.149l.449.601zm2.997 13.5V24v-.75zM8.25 6.75a.75.75 0 100 1.5v-1.5zM15 8.25a.75.75 0 000-1.5v1.5zm1.5-7.5l.496.562a.75.75 0 00-.62-1.302l.124.74zm-9 1.5l-.123-.74a.75.75 0 00-.236 1.398L7.5 2.25zm1.5 3h-.75c0 .414.336.75.75.75v-.75zm4.875 0V6a.75.75 0 00.75-.75h-.75zM6.392 21.46a.75.75 0 10-.784 1.28l.784-1.28zM7 10.114a.75.75 0 001 1.119l-1-1.119zM1 15.75a.75.75 0 000 1.5v-1.5zm4.47 2.72a.75.75 0 001.06 1.06l-1.06-1.06zM8.5 16.5l.53.53a.75.75 0 000-1.06l-.53.53zm-1.97-3.03a.75.75 0 00-1.06 1.06l1.06-1.06zM14.622 9H8.628v1.5h5.994V9zm-2.997 15c3.022 0 5.207-.524 6.638-1.702 1.468-1.209 1.987-2.971 1.987-5.048h-1.5c0 1.84-.454 3.078-1.44 3.89-1.025.843-2.777 1.36-5.685 1.36V24zm8.625-6.75c0-1.63-.717-3.215-1.688-4.582-.977-1.376-2.256-2.597-3.491-3.52l-.897 1.203c1.135.847 2.295 1.96 3.165 3.185.875 1.233 1.411 2.514 1.411 3.714h1.5zm-12-9H15v-1.5H8.25v1.5zM16.377.01l-9 1.5.246 1.48 9-1.5-.246-1.48zM7.5 2.25l-.36.658-.002-.001-.002-.001-.003-.002.023.014a2.361 2.361 0 01.504.477c.284.361.59.951.59 1.855h1.5c0-1.278-.444-2.188-.91-2.782a3.86 3.86 0 00-.641-.645 3.057 3.057 0 00-.333-.228l-.004-.002h-.001l-.001-.001-.36.658zM9 6h4.875V4.5H9V6zm5.625-.75c0-.828.518-1.782 1.157-2.61a11.01 11.01 0 011.211-1.325l.004-.003L16.5.75l-.497-.562-.001.001L16 .191l-.008.007a4.368 4.368 0 00-.12.11 12.514 12.514 0 00-1.28 1.416c-.673.876-1.467 2.172-1.467 3.526h1.5zM5.608 22.74C7.02 23.604 9.004 24 11.625 24v-1.5c-2.51 0-4.167-.386-5.233-1.04l-.784 1.28zM8.179 9.148c-.393.294-.79.617-1.179.964l1 1.119c.356-.318.718-.613 1.076-.881L8.18 9.149zM6.53 19.53l2.5-2.5-1.06-1.06-2.5 2.5 1.06 1.06zm2.5-3.56l-2.5-2.5-1.06 1.06 2.5 2.5 1.06-1.06zM1 17.25h7.5v-1.5H1v1.5zm14.45-2.34c-.576 0-1.071.306-1.323.774V15h-1.17v4.5h1.314v-2.457c0-.657.387-1 1.152-1 .189 0 .36.019.495.046v-1.125a1.733 1.733 0 00-.468-.054zm-4.229 1.209l1.018-1.12h-1.44c.24.4.381.913.422 1.12zm-.422 3.381h1.575l-1.401-1.81c-.012.054-.18.327-.755.986l.581.824z" fill="#000"/></svg>
